X:1
T:Minuet in G
T:Minuet in G
T:Scored by Sean Mail
T:Ludwig van Beethoven
C:Ludwig van Beethoven
L:1/8
Q:1/4=90
M:3/4
K:G
V:1 treble nm="Violin" snm="Vln."
V:1
!p! (uB>c) |: (!>!d>^c !>!d>c !>!d>c) | ud4 (ue>B) | c4 (d>A) | B2 z2 (uG>A) | %5
 (!>!B>^A !>!B>A !>!B>A) | B4 v=A>uG | (GF) (FAGE) |1 D2 z2!p! (uB>c) :|2 D2 z2!mf! (udg) |: %10
 (g2 f2) g2 |!f! a4 (g/f/e/d/) |!>(! (c2 B2) (e>c)!>)! | (B2 A) z (uG>A) | %14
 (!>!B>^A !>!B>A !>!B>A) | B4 (uc>^G) |!>(! A4!p! (B>F)!>)! |1 G2 z2 (udg) :|2 G2 z!fine! || %19
 (ud^cd) |: (vBd)(.uG.B.D.B) | (Ac)(.F.A.D.F) | (GF)(.G.A.B.c) | (d^c)(.d.e.d.=c) | %24
 (B^A)(.B.c.B.=A) | (GB)(.A.G.F.A) | (EF)(.G.E.^C.A,) | D2 z!<(! ud^cd!<)! ::!f! (e=cA)(.B.A.B) | %29
 (cAF)!p!(.d.^c.d) | (e=cA)!>(!(.B.A.B)!>)! | (cAF)(.d.^c.d) | (Bd)!<(!(.G.B.D.g)!<)! | %33
 (eg)(.c.e.A.c) | (FA) (.D.E .=F.^F) |1 (A2 G)!<(! ud^cd!<)! :|2!>(! (vA2 G) z!>)!!D.C.! |] %37

